X:103
T:LVSGREN1- The Keeper
S:One Hundred English Folksongs
Q:1/4=100
L:1/4
M:4/4
K:D
A|FGAA|Bd{d/}A3/2A/|F(G/ G/)AA|(B/ B/)d{d/}A2|\
d(A/ A/)d(A/ A/)|(d/ d/) (A/ A/)F3/2E/|DeA(G/F/)|E2Dz||\
"Chorus"F/ G/Az2|F/ G/Az2|eAz2|F/ G/ F/ G/E3/2D/|\
DdA(G/F/)|E2DA/ G/|FGAz|z4|dAz2|F/ G/ F/ G/E3/2D/|DdA(G/F/)|E2D|]

